modules/feathericon/icons/coffee.svg

<?xml version="1.0" encoding="UTF-8"?>
<svg width="24px" height="24px" viewBox="0 0 24 24" version="1.1" xmlns="http://www.w3.org/2000/svg" xmlns:xlink="http://www.w3.org/1999/xlink">
    <!-- Generator: sketchtool 52.2 (67145) - http://www.bohemiancoding.com/sketch -->
    <title>coffee</title>
    <desc>Created with sketchtool.</desc>
    <g id="food" stroke="none" stroke-width="1" fill="none" fill-rule="evenodd">
        <g id="coffee" fill="#000000">
            <path d="M4,17 L20,17 C20.5522847,17 21,17.4477153 21,18 C21,18.5522847 20.5522847,19 20,19 L4,19 C3.44771525,19 3,18.5522847 3,18 C3,17.4477153 3.44771525,17 4,17 Z M17,7 L18,7 C19.1045695,7 20,7.8954305 20,9 C20,10.1045695 19.1045695,11 18,11 L17,11 C16.9666278,11 16.9334466,10.9991826 16.9004752,10.9975668 C16.4381455,13.2810193 14.4198175,15 12,15 L10,15 C7.23857625,15 5,12.7614237 5,10 L5,7 C5,5.8954305 5.8954305,5 7,5 L15,5 C16.1045695,5 17,5.8954305 17,7 Z M7,7 L7,10 C7,11.6568542 8.34314575,13 10,13 L12,13 C13.6568542,13 15,11.6568542 15,10 L15,7 L7,7 Z" id="Shape"></path>
        </g>
    </g>
</svg>

<svg width="24" height="24" viewBox="0 0 24 24" xmlns="http://www.w3.org/2000/svg"><path d="M4 17h16a1 1 0 0 1 0 2H4a1 1 0 0 1 0-2zM17 7h1a2 2 0 1 1 0 4h-1c-.033 0-.067 0-.1-.002A5.002 5.002 0 0 1 12 15h-2a5 5 0 0 1-5-5V7a2 2 0 0 1 2-2h8a2 2 0 0 1 2 2zM7 7v3a3 3 0 0 0 3 3h2a3 3 0 0 0 3-3V7H7z" fill="#000" fill-rule="evenodd"/></svg>
